assets/tape-cover-cutout.svg

<svg fill="none" height="225" viewBox="0 0 150 225" width="150" xmlns="http://www.w3.org/2000/svg"><path d="m150 203.191c0-4.573-1.958-8.929-5.378-11.965l-27.882-24.75c-3.585-3.183-3.585-8.783 0-11.966l27.882-24.749c3.42-3.037 5.378-7.392 5.378-11.966v-117.795h-150v225h150z" fill="#d9d9d9"/></svg>

<svg width="150" height="225" viewBox="0 0 150 225" fill="none" xmlns="http://www.w3.org/2000/svg">
<path d="M150 203.191C150 198.618 148.042 194.262 144.622 191.226L116.74 166.476C113.155 163.293 113.155 157.693 116.74 154.51L144.622 129.761C148.042 126.724 150 122.369 150 117.795V0H0V225H150V203.191Z" fill="#D9D9D9"/>
</svg>
